svgs/republik.svg

<svg viewBox="0 0 192 192" xml:space="preserve" style="fill-rule:evenodd;clip-rule:evenodd;stroke-linejoin:round;stroke-miterlimit:2" xmlns="http://www.w3.org/2000/svg"><path d="M552.05 733.741c14.763-6.133 29.244-18.326 29.244-39.416 0-34.398-34.53-40.325-45.925-40.325H446a6 6 0 0 0-6 6v4.78a6 6 0 0 0 3.334 5.375l11.354 5.63.979 2.214v107.944l-1.12 2.376-11.246 5.664a6 6 0 0 0-3.301 5.359V804a6 6 0 0 0 6 6h74a6 6 0 0 0 6-6v-4.143a5.998 5.998 0 0 0-3.524-5.465l-14.565-6.598-.885-1.924v-33.155l4.911-4.287 27.026 58.103a5.999 5.999 0 0 0 5.44 3.469H594a6 6 0 0 0 6-6v-5.173a6.002 6.002 0 0 0-2.715-5.022l-8.92-5.834-25.858-49.912a6.001 6.001 0 0 0-4.212-3.136l-6.245-1.182ZM461.966 666h73.403c8.24 0 33.925 3.451 33.925 28.325 0 22.582-22.983 30.568-36.384 32.239a6 6 0 0 0-4.808 8.233l1.713 4.172a6 6 0 0 0 4.435 3.616l18.945 3.586 25.24 48.718a5.99 5.99 0 0 0 2.043 2.261l1.298.85H548.23l-28.781-61.876a6.003 6.003 0 0 0-9.387-1.989l-12.982 11.334a6 6 0 0 0-2.054 4.52v37.195c0 .865.187 1.721.549 2.507l2.37 5.152a6 6 0 0 0 2.975 2.958l.44.199h-39.369a5.994 5.994 0 0 0 2.527-2.693l2.576-5.46a5.997 5.997 0 0 0 .573-2.56V676.732a6 6 0 0 0-.512-2.427l-2.37-5.358a6.002 6.002 0 0 0-2.819-2.947Zm49.198 6.77a6 6 0 0 0-3.821 1.374l-9.819 8.11a6.001 6.001 0 0 0-2.179 4.626v32.008a6 6 0 0 0 6 6h9.295c2.908 0 24.59-2.925 24.59-26.437 0-22.36-21.307-25.681-24.066-25.681Zm1.787 12.306c3.45.901 10.279 4.089 10.279 13.375 0 12.474-11.047 14.437-12.59 14.437h-3.295v-23.182l5.606-4.63Z" style="fill-rule:evenodd;clip-rule:evenodd;stroke-linejoin:round;stroke-miterlimit:2" transform="translate(-424 -636)"/></svg>

<?xml version="1.0" encoding="UTF-8" standalone="no"?>
<svg
   width="100%"
   height="100%"
   viewBox="0 0 192 192"
   version="1.1"
   xml:space="preserve"
   style="fill-rule:evenodd;clip-rule:evenodd;stroke-linejoin:round;stroke-miterlimit:2;"
   id="svg10"
   sodipodi:docname="republik.svg"
   inkscape:version="1.2.1 (9c6d41e410, 2022-07-14)"
   xmlns:inkscape="http://www.inkscape.org/namespaces/inkscape"
   xmlns:sodipodi="http://sodipodi.sourceforge.net/DTD/sodipodi-0.dtd"
   xmlns="http://www.w3.org/2000/svg"
   xmlns:svg="http://www.w3.org/2000/svg"><defs
   id="defs14" /><sodipodi:namedview
   id="namedview12"
   pagecolor="#ffffff"
   bordercolor="#000000"
   borderopacity="0.25"
   inkscape:showpageshadow="2"
   inkscape:pageopacity="0.0"
   inkscape:pagecheckerboard="0"
   inkscape:deskcolor="#d1d1d1"
   showgrid="false"
   inkscape:zoom="2.8598768"
   inkscape:cx="94.234829"
   inkscape:cy="131.4742"
   inkscape:window-width="1274"
   inkscape:window-height="1303"
   inkscape:window-x="1282"
   inkscape:window-y="36"
   inkscape:window-maximized="0"
   inkscape:current-layer="svg10" />
    <path
   d="M552.05,733.741C566.813,727.608 581.294,715.415 581.294,694.325C581.294,659.927 546.764,654 535.369,654C535.369,654 446,654 446,654C442.686,654 440,656.686 440,660L440,664.78C440,667.06 441.292,669.142 443.334,670.155L454.688,675.785C454.688,675.785 455.667,677.999 455.667,677.999C455.667,677.999 455.667,785.943 455.667,785.943C455.667,785.943 454.547,788.319 454.547,788.319C454.547,788.319 443.301,793.983 443.301,793.983C441.277,795.003 440,797.075 440,799.342L440,804C440,807.314 442.686,810 446,810L520,810C523.314,810 526,807.314 526,804L526,799.857C526,797.501 524.622,795.364 522.476,794.392L507.911,787.794C507.911,787.794 507.026,785.87 507.026,785.87C507.026,785.87 507.026,752.715 507.026,752.715C507.026,752.715 511.937,748.428 511.937,748.428C511.937,748.428 538.963,806.531 538.963,806.531C539.947,808.647 542.069,810 544.403,810L594,810C597.314,810 600,807.314 600,804L600,798.827C600,796.802 598.979,794.914 597.285,793.805L588.365,787.971C588.365,787.971 562.507,738.059 562.507,738.059C561.659,736.422 560.106,735.266 558.295,734.923L552.05,733.741ZM461.966,666L535.369,666C543.609,666 569.294,669.451 569.294,694.325C569.294,716.907 546.311,724.893 532.91,726.564C531.055,726.795 529.414,727.878 528.471,729.492C527.529,731.106 527.392,733.068 528.102,734.797L529.815,738.969C530.586,740.847 532.255,742.207 534.25,742.585L553.195,746.171C553.195,746.171 578.435,794.889 578.435,794.889C578.91,795.806 579.613,796.585 580.478,797.15L581.776,798L548.23,798C548.23,798 519.449,736.124 519.449,736.124C518.653,734.413 517.098,733.177 515.252,732.785C513.406,732.394 511.484,732.894 510.062,734.135L497.08,745.469C495.775,746.608 495.026,748.256 495.026,749.989L495.026,787.184C495.026,788.049 495.213,788.905 495.575,789.691L497.945,794.843C498.548,796.155 499.605,797.205 500.92,797.801L501.36,798L461.991,798C463.094,797.392 463.979,796.45 464.518,795.307L467.094,789.847C467.472,789.046 467.667,788.172 467.667,787.287L467.667,676.732C467.667,675.896 467.493,675.069 467.155,674.305L464.785,668.947C464.218,667.666 463.221,666.623 461.966,666ZM511.164,672.77C509.769,672.77 508.418,673.256 507.343,674.144L497.524,682.254C496.144,683.394 495.345,685.091 495.345,686.88L495.345,718.888C495.345,722.202 498.031,724.888 501.345,724.888L510.64,724.888C513.548,724.888 535.23,721.963 535.23,698.451C535.23,676.091 513.923,672.77 511.164,672.77ZM512.951,685.076C516.401,685.977 523.23,689.165 523.23,698.451C523.23,710.925 512.183,712.888 510.64,712.888L507.345,712.888C507.345,712.888 507.345,689.706 507.345,689.706C507.345,689.707 512.951,685.076 512.951,685.076L512.951,685.076Z"
   id="path4"
   style="fill-rule:evenodd;clip-rule:evenodd;stroke-linejoin:round;stroke-miterlimit:2"
   transform="translate(-424,-636)"
   inkscape:label="Republik-Form" />
</svg>
